X:271
T:Lesslie’s March
C: No 271 Wm Clarke MS Feltwell, Norfolk
N:MS key signature G
Z:Transcribed Mary Humphreys 2008
M:6/8
L:1/8
K:C
U:T=!trill!
c3 c3|cBA GAB|cBA GFE|FGE TD2C|d3 d3|edc dgf|edc AGA|cde Td2c:||
:edc dGG|edc dGG|fed eAA|fed eAA|edc dGG|edc dgf|edc AGA|cde Td2c:||
:ceg ceg||ceg gfe|dfa dfa|dfa afd|ceg ceg||ceg gdg|edc AGA|cde d2c:||

